svgs/solid/house-building.svg

<svg xmlns="http://www.w3.org/2000/svg" viewBox="0 0 640 512"><!--! Font Awesome Pro 6.6.0 by @fontawesome - https://fontawesome.com License - https://fontawesome.com/license (Commercial License) Copyright 2024 Fonticons, Inc. --><path d="M368 0c-26.5 0-48 21.5-48 48l0 105.9 64 58.7 0-4.6c0-8.8 7.2-16 16-16l32 0c8.8 0 16 7.2 16 16l0 32c0 8.8-7.2 16-16 16l-18.8 0c1.9 6.8 2.8 13.9 2.8 21.1l0 10.9 16 0c8.8 0 16 7.2 16 16l0 32c0 8.8-7.2 16-16 16l-16 0 0 112c0 18-6 34.6-16 48l192 0c26.5 0 48-21.5 48-48l0-416c0-26.5-21.5-48-48-48L368 0zM512 208c0-8.8 7.2-16 16-16l32 0c8.8 0 16 7.2 16 16l0 32c0 8.8-7.2 16-16 16l-32 0c-8.8 0-16-7.2-16-16l0-32zm16 80l32 0c8.8 0 16 7.2 16 16l0 32c0 8.8-7.2 16-16 16l-32 0c-8.8 0-16-7.2-16-16l0-32c0-8.8 7.2-16 16-16zM400 96l32 0c8.8 0 16 7.2 16 16l0 32c0 8.8-7.2 16-16 16l-32 0c-8.8 0-16-7.2-16-16l0-32c0-8.8 7.2-16 16-16zm112 16c0-8.8 7.2-16 16-16l32 0c8.8 0 16 7.2 16 16l0 32c0 8.8-7.2 16-16 16l-32 0c-8.8 0-16-7.2-16-16l0-32zM0 277.1L0 464c0 26.5 21.5 48 48 48l288 0c26.5 0 48-21.5 48-48l0-186.9c0-13.5-5.6-26.3-15.6-35.4l-144-132c-18.4-16.8-46.5-16.8-64.9 0l-144 132C5.6 250.8 0 263.7 0 277.1zM144 296c0-13.3 10.7-24 24-24l48 0c13.3 0 24 10.7 24 24l0 48c0 13.3-10.7 24-24 24l-48 0c-13.3 0-24-10.7-24-24l0-48z"/></svg>

<svg xmlns="http://www.w3.org/2000/svg" viewBox="0 0 640 512"><!--! Font Awesome Pro 6.4.0 by @fontawesome - https://fontawesome.com License - https://fontawesome.com/license (Commercial License) Copyright 2023 Fonticons, Inc. --><path d="M368 0c-26.5 0-48 21.5-48 48V153.9l64 58.7V208c0-8.8 7.2-16 16-16h32c8.8 0 16 7.2 16 16v32c0 8.8-7.2 16-16 16H413.2c1.9 6.8 2.8 13.9 2.8 21.1V288h16c8.8 0 16 7.2 16 16v32c0 8.8-7.2 16-16 16H416V464c0 18-6 34.6-16 48H592c26.5 0 48-21.5 48-48V48c0-26.5-21.5-48-48-48H368zM512 208c0-8.8 7.2-16 16-16h32c8.8 0 16 7.2 16 16v32c0 8.8-7.2 16-16 16H528c-8.8 0-16-7.2-16-16V208zm16 80h32c8.8 0 16 7.2 16 16v32c0 8.8-7.2 16-16 16H528c-8.8 0-16-7.2-16-16V304c0-8.8 7.2-16 16-16zM400 96h32c8.8 0 16 7.2 16 16v32c0 8.8-7.2 16-16 16H400c-8.8 0-16-7.2-16-16V112c0-8.8 7.2-16 16-16zm112 16c0-8.8 7.2-16 16-16h32c8.8 0 16 7.2 16 16v32c0 8.8-7.2 16-16 16H528c-8.8 0-16-7.2-16-16V112zM0 277.1V464c0 26.5 21.5 48 48 48H336c26.5 0 48-21.5 48-48V277.1c0-13.5-5.6-26.3-15.6-35.4l-144-132c-18.4-16.8-46.5-16.8-64.9 0l-144 132C5.6 250.8 0 263.7 0 277.1zM144 296c0-13.3 10.7-24 24-24h48c13.3 0 24 10.7 24 24v48c0 13.3-10.7 24-24 24H168c-13.3 0-24-10.7-24-24V296z"/></svg>
